images_sukapura_svg/cmd/32/sortascending.svg

<svg viewBox="0 0 32 32" xmlns="http://www.w3.org/2000/svg" xmlns:xlink="http://www.w3.org/1999/xlink"><linearGradient id="a" gradientUnits="userSpaceOnUse" x1="-16" x2="-16" y1="24" y2="12"><stop offset="0" stop-color="#0040dd"/><stop offset="1" stop-color="#0a84ff"/></linearGradient><path d="m6.0895631 27.604702h5.8526309v1.396126h-7.942196v-1.257438l5.5197803-7.331969h-5.4365675v-1.414617h7.5816082v1.211208z" fill="#69696e"/><path d="m21 5c-.554 0-1 .446-1 1v14h-3a1.0001 1.0001 0 0 0 -.707031 1.707031l5 5a1.0001 1.0001 0 0 0 1.414062 0l5-5a1.0001 1.0001 0 0 0 -.707031-1.707031h-3v-14c0-.554-.446-1-1-1z" fill="#69696e"/><path d="m11.278571 14.78629q-.170969-.341937-.277824-1.21815-1.3784328 1.431861-3.2911421 1.431861-1.7096843 0-2.8102935-.961698-1.0899237-.972383-1.0899237-2.457671 0-1.8058539 1.3677474-2.7996079 1.3784329-1.0044395 3.8681607-1.0044395h1.9233952v-.9082698q0-1.0364961-.619761-1.6455711-.6197605-.6197605-1.827225-.6197605-1.0578672 0-1.7737975.5342763-.7159303.5342763-.7159303 1.2929487h-1.987508q0-.8655276.6090751-1.6669421.6197605-.8121001 1.6669421-1.2822632 1.0578672-.4701632 2.3187594-.4701632 1.9981932 0 3.1308592 1.0044395 1.132666.993754 1.175408 2.7461804v5.3213924q0 1.592143.40605 2.53247v.170968zm-3.2804568-1.506659q.9296408 0 1.7631119-.480849.8334709-.480849 1.2074649-1.250206v-2.3721874h-1.5494018q-3.6330791 0-3.6330791 2.1264194 0 .929641.6197606 1.453232.6197605.523591 1.5921435.523591z" fill="url(#a)"/></svg>

<?xml version="1.0" encoding="UTF-8" standalone="no"?>
<svg
   xmlns:dc="http://purl.org/dc/elements/1.1/"
   xmlns:cc="http://creativecommons.org/ns#"
   xmlns:rdf="http://www.w3.org/1999/02/22-rdf-syntax-ns#"
   xmlns:svg="http://www.w3.org/2000/svg"
   xmlns="http://www.w3.org/2000/svg"
   xmlns:xlink="http://www.w3.org/1999/xlink"
   xmlns:sodipodi="http://sodipodi.sourceforge.net/DTD/sodipodi-0.dtd"
   xmlns:inkscape="http://www.inkscape.org/namespaces/inkscape"
   viewBox="0 0 32 32"
   version="1.1"
   id="svg12"
   sodipodi:docname="sortascending.svg"
   inkscape:version="0.92.3 (unknown)">
  <metadata
     id="metadata18">
    <rdf:RDF>
      <cc:Work
         rdf:about="">
        <dc:format>image/svg+xml</dc:format>
        <dc:type
           rdf:resource="http://purl.org/dc/dcmitype/StillImage" />
        <dc:title />
      </cc:Work>
    </rdf:RDF>
  </metadata>
  <defs
     id="defs16">
    <linearGradient
       gradientTransform="translate(-25,9)"
       id="a"
       gradientUnits="userSpaceOnUse"
       x1="14"
       x2="13.79661"
       y1="22"
       y2="2.1355929">
      <stop
         offset="0"
         stop-color="#0040dd"
         id="stop2799" />
      <stop
         offset="1"
         stop-color="#0a84ff"
         id="stop2801" />
    </linearGradient>
    <linearGradient
       inkscape:collect="always"
       xlink:href="#a"
       id="linearGradient1527"
       x1="6"
       y1="12"
       x2="6"
       y2="3"
       gradientUnits="userSpaceOnUse"
       gradientTransform="matrix(1.0116585,0,0,1.0116585,1.3778072,0.04673107)" />
    <linearGradient
       inkscape:collect="always"
       xlink:href="#a"
       id="linearGradient1579"
       x1="9"
       y1="15"
       x2="9"
       y2="3"
       gradientUnits="userSpaceOnUse" />
  </defs>
  <sodipodi:namedview
     pagecolor="#ffffff"
     bordercolor="#666666"
     borderopacity="1"
     objecttolerance="10"
     gridtolerance="10"
     guidetolerance="10"
     inkscape:pageopacity="0"
     inkscape:pageshadow="2"
     inkscape:window-width="1366"
     inkscape:window-height="699"
     id="namedview14"
     showgrid="true"
     inkscape:zoom="5.6568543"
     inkscape:cx="-10.568155"
     inkscape:cy="8.9491601"
     inkscape:window-x="0"
     inkscape:window-y="0"
     inkscape:window-maximized="1"
     inkscape:current-layer="svg12">
    <inkscape:grid
       type="xygrid"
       id="grid828"
       spacingx="0.5"
       spacingy="0.5"
       empspacing="2" />
  </sodipodi:namedview>
  <g
     aria-label="z"
     style="font-style:normal;font-weight:normal;font-size:18.9355278px;line-height:1.25;font-family:sans-serif;letter-spacing:0px;word-spacing:0px;fill:#69696e;fill-opacity:1;stroke:none;stroke-width:0.4733882"
     id="text842">
    <path
       d="m 6.0895631,27.604702 h 5.8526309 v 1.396126 H 3.999998 V 27.74339 L 9.5197783,20.411421 H 4.0832108 v -1.414617 h 7.5816082 v 1.211208 z"
       style="font-style:normal;font-variant:normal;font-weight:normal;font-stretch:normal;font-family:Roboto;-inkscape-font-specification:Roboto;fill:#69696e;fill-opacity:1;stroke-width:0.4733882"
       id="path2186" />
  </g>
  <path
     style="opacity:1;fill:#69696e;fill-opacity:1;stroke:none;stroke-width:1;stroke-linecap:round;stroke-linejoin:round;stroke-miterlimit:4;stroke-dasharray:none;stroke-opacity:0"
     d="M 21 5 C 20.446 5 20 5.446 20 6 L 20 20 L 17 20 A 1.0001 1.0001 0 0 0 16.292969 21.707031 L 21.292969 26.707031 A 1.0001 1.0001 0 0 0 22.707031 26.707031 L 27.707031 21.707031 A 1.0001 1.0001 0 0 0 27 20 L 24 20 L 24 6 C 24 5.446 23.554 5 23 5 L 21 5 z "
     id="rect834" />
  <g
     aria-label="a"
     style="font-style:normal;font-weight:normal;font-size:21.88395882px;line-height:1.25;font-family:sans-serif;letter-spacing:0px;word-spacing:0px;fill:url(#linearGradient1579);fill-opacity:1;stroke:none;stroke-width:0.54709899"
     id="text838">
    <path
       d="m 11.278571,14.78629 q -0.170969,-0.341937 -0.277824,-1.21815 -1.3784328,1.431861 -3.2911421,1.431861 -1.7096843,0 -2.8102935,-0.961698 -1.0899237,-0.972383 -1.0899237,-2.457671 0,-1.8058539 1.3677474,-2.7996079 Q 6.555568,7.7765846 9.0452958,7.7765846 H 10.968691 V 6.8683148 q 0,-1.0364961 -0.619761,-1.6455711 -0.6197605,-0.6197605 -1.827225,-0.6197605 -1.0578672,0 -1.7737975,0.5342763 -0.7159303,0.5342763 -0.7159303,1.2929487 h -1.987508 q 0,-0.8655276 0.6090751,-1.6669421 Q 5.2733048,3.951166 6.3204864,3.4810029 7.3783536,3.0108397 8.6392458,3.0108397 q 1.9981932,0 3.1308592,1.0044395 1.132666,0.993754 1.175408,2.7461804 v 5.3213924 q 0,1.592143 0.40605,2.53247 V 14.78629 Z M 7.9981142,13.279631 q 0.9296408,0 1.7631119,-0.480849 0.8334709,-0.480849 1.2074649,-1.250206 V 9.1763886 H 9.4192892 q -3.6330791,0 -3.6330791,2.1264194 0,0.929641 0.6197606,1.453232 0.6197605,0.523591 1.5921435,0.523591 z"
       style="font-style:normal;font-variant:normal;font-weight:normal;font-stretch:normal;font-family:Roboto;-inkscape-font-specification:Roboto;fill:url(#linearGradient1579);fill-opacity:1;stroke-width:0.54709899"
       id="path2189" />
  </g>
</svg>
